; generated by PrusaSlicer 2.9.0 on 2025-04-15 at 21:29:49 UTC

; 

; external perimeters extrusion width = 0.42mm
; perimeters extrusion width = 0.45mm
; infill extrusion width = 0.45mm
; solid infill extrusion width = 0.42mm
; top infill extrusion width = 0.40mm
; support material extrusion width = 0.35mm
; first layer extrusion width = 0.50mm

M201 X20000 Y20000 Z1500 E5000 ; sets maximum accelerations, mm/sec^2
M203 X500 Y500 Z12 E120 ; sets maximum feedrates, mm / sec
M204 S20000 T5000 ; sets acceleration (S) and retract acceleration (R), mm/sec^2
M205 X9.00 Y9.00 Z5.00 E3.00 ; sets the jerk limits, mm/sec
M205 S0 T0 ; sets the minimum extruding and travel feed rate, mm/sec
;TYPE:Custom
; EXECUTABLE_BLOCK_START
M73 P0 R69
M73 C37
M201 X20000 Y20000 Z1500 E5000
M203 X500 Y500 Z30 E30
M204 P20000 R5000 T20000
M205 X9.00 Y9.00 Z5.00 E3.00
M106 S0
M106 P2 S0
; FEATURE: Custom
;===== machine: A1 mini =========================
;===== date: 20240204 =====================

;===== start to heat heatbead&hotend==========
M1002 gcode_claim_action : 2
M1002 set_filament_type:PLA
M104 S170
M140 S65
G392 S0 ;turn off clog detect
M9833.2
;=====start printer sound ===================
M17
M400 S1
M1006 S1
M1006 A0 B0 L100 C37 D10 M100 E37 F10 N100
M1006 A0 B0 L100 C41 D10 M100 E41 F10 N100
M1006 A0 B0 L100 C44 D10 M100 E44 F10 N100
M1006 A0 B10 L100 C0 D10 M100 E0 F10 N100
M1006 A43 B10 L100 C39 D10 M100 E46 F10 N100
M1006 A0 B0 L100 C0 D10 M100 E0 F10 N100
M1006 A0 B0 L100 C39 D10 M100 E43 F10 N100
M1006 A0 B0 L100 C0 D10 M100 E0 F10 N100
M1006 A0 B0 L100 C41 D10 M100 E41 F10 N100
M1006 A0 B0 L100 C44 D10 M100 E44 F10 N100
M1006 A0 B0 L100 C49 D10 M100 E49 F10 N100
M1006 A0 B0 L100 C0 D10 M100 E0 F10 N100
M1006 A44 B10 L100 C39 D10 M100 E48 F10 N100
M1006 A0 B0 L100 C0 D10 M100 E0 F10 N100
M1006 A0 B0 L100 C39 D10 M100 E44 F10 N100
M1006 A0 B0 L100 C0 D10 M100 E0 F10 N100
M1006 A43 B10 L100 C39 D10 M100 E46 F10 N100
M1006 W
M18
;=====avoid end stop =================
G91
G380 S2 Z30 F1200
G380 S3 Z-20 F1200
G1 Z5 F1200
G90

;===== reset machine status =================
M204 S6000

M630 S0 P0
G91
M17 Z0.3 ; lower the z-motor current

G90
M17 X0.7 Y0.9 Z0.5 ; reset motor current to default
M960 S5 P1 ; turn on logo lamp
G90
M83
M220 S100 ;Reset Feedrate
M221 S100 ;Reset Flowrate
M73.2   R1.0 ;Reset left time magnitude
;====== cog noise reduction=================
M982.2 S1 ; turn on cog noise reduction

;===== prepare print temperature and material ==========
M400
M18
M109 S100 H170
M104 S170
M400
M17
M400
G28 X

M211 X0 Y0 Z0 ;turn off soft endstop ; turn off soft endstop to prevent protential logic problem

M975 S1 ; turn on

G1 X0.0 F30000
G1 X-13.5 F3000

M620 M ;enable remap
M620 S0A   ; switch material if AMS exist
    G392 S0 ;turn on clog detect
    M1002 gcode_claim_action : 4
    M400
    M1002 set_filament_type:UNKNOWN
    M109 S220
    M104 S250
    M400
    T0
    G1 X-13.5 F3000
    M400
    M620.1 E F523.843 T240
    M109 S250 ;set nozzle to common flush temp
    M106 P1 S0
    G92 E0
    G1 E50 F200
    M400
    M1002 set_filament_type:PLA
    M104 S240
    G92 E0
    G1 E50 F523.843
    M400
    M106 P1 S178
    G92 E0
M73 C36
    G1 E5 F523.843
    M109 S200 ; drop nozzle temp, make filament shink a bit
    M104 S180
    G92 E0
    G1 E-0.5 F300

    G1 X0 F30000
    G1 X-13.5 F3000
    G1 X0 F30000 ;wipe and shake
    G1 X-13.5 F3000
    G1 X0 F12000 ;wipe and shake
    G1 X0 F30000
    G1 X-13.5 F3000
    M109 S180
    G392 S0 ;turn off clog detect
M621 S0A

M400
M106 P1 S0
;===== prepare print temperature and material end =====


;===== mech mode fast check============================
M1002 gcode_claim_action : 3
G0 X25 Y175 F20000 ; find a soft place to home
;M104 S0
G28 Z P0 T300; home z with low precision,permit 300deg temperature
G29.2 S0 ; turn off ABL
M104 S170

; build plate detect
M1002 judge_flag build_plate_detect_flag
M622 S1
  G39.4
  M400
M623

G1 Z5 F3000
G1 X90 Y-1 F30000
M400 P200
M970.3 Q1 A7 K0 O2
M974 Q1 S2 P0

G1 X90 Y0 Z5 F30000
M400 P200
M970 Q0 A10 B50 C90 H15 K0 M20 O3
M974 Q0 S2 P0

M975 S1
G1 F30000
G1 X-1 Y10
G28 X ; re-home XY

;===== wipe nozzle ===============================
M1002 gcode_claim_action : 14
M975 S1

M104 S170 ; set temp down to heatbed acceptable
M106 S255 ; turn on fan (G28 has turn off fan)
M211 S; push soft endstop status
M211 X0 Y0 Z0 ;turn off Z axis endstop

M83
G1 E-1 F500
G90
M83

M109 S170
M104 S140
G0 X90 Y-4 F30000
G380 S3 Z-5 F1200
M73 P6 R64
M73 C32
G1 Z2 F1200
G1 X91 F10000
G380 S3 Z-5 F1200
G1 Z2 F1200
G1 X92 F10000
G380 S3 Z-5 F1200
G1 Z2 F1200
G1 X93 F10000
G380 S3 Z-5 F1200
G1 Z2 F1200
G1 X94 F10000
G380 S3 Z-5 F1200
G1 Z2 F1200
G1 X95 F10000
G380 S3 Z-5 F1200
G1 Z2 F1200
G1 X96 F10000
G380 S3 Z-5 F1200
G1 Z2 F1200
G1 X97 F10000
G380 S3 Z-5 F1200
G1 Z2 F1200
G1 X98 F10000
G380 S3 Z-5 F1200
G1 Z2 F1200
G1 X99 F10000
G380 S3 Z-5 F1200
G1 Z2 F1200
G1 X99 F10000
G380 S3 Z-5 F1200
G1 Z2 F1200
G1 X99 F10000
G380 S3 Z-5 F1200
G1 Z2 F1200
G1 X99 F10000
G380 S3 Z-5 F1200
G1 Z2 F1200
G1 X99 F10000
G380 S3 Z-5 F1200

G1 Z5 F30000
;;;;;;;;;;;;;;;;;;;;;;;;;;;;;;
G1 X25 Y175 F30000.1 ;Brush material
G1 Z0.2 F30000.1
G1 Y185
G91
G1 X-30 F30000
G1 Y-2
G1 X27
G1 Y1.5
G1 X-28
G1 Y-2
G1 X30
G1 Y1.5
G1 X-30
G90
M83

G1 Z5 F3000
G0 X50 Y175 F20000 ; find a soft place to home
G28 Z P0 T300; home z with low precision, permit 300deg temperature
G29.2 S0 ; turn off ABL

G0 X85 Y185 F10000 ;move to exposed steel surface and stop the nozzle
G0 Z-1.01 F10000
G91

G2 I1 J0 X2 Y0 F2000.1
G2 I-0.75 J0 X-1.5
G2 I1 J0 X2
G2 I-0.75 J0 X-1.5
G2 I1 J0 X2
G2 I-0.75 J0 X-1.5
G2 I1 J0 X2
G2 I-0.75 J0 X-1.5
G2 I1 J0 X2
G2 I-0.75 J0 X-1.5
G2 I1 J0 X2
G2 I-0.75 J0 X-1.5
G2 I1 J0 X2
G2 I-0.75 J0 X-1.5
G2 I1 J0 X2
G2 I-0.75 J0 X-1.5
G2 I1 J0 X2
G2 I-0.75 J0 X-1.5
G2 I1 J0 X2
G2 I-0.75 J0 X-1.5

G90
G1 Z5 F30000
G1 X25 Y175 F30000.1 ;Brush material
G1 Z0.2 F30000.1
G1 Y185
G91
G1 X-30 F30000
G1 Y-2
G1 X27
G1 Y1.5
G1 X-28
G1 Y-2
G1 X30
G1 Y1.5
G1 X-30
G90
M83

G1 Z5
G0 X55 Y175 F20000 ; find a soft place to home
G28 Z P0 T300; home z with low precision, permit 300deg temperature
G29.2 S0 ; turn off ABL

G1 Z10
G1 X85 Y185
G1 Z-1.01
G1 X95
G1 X90

M211 R; pop softend status

M106 S0 ; turn off fan , too noisy
;===== wipe nozzle end ================================


;===== wait heatbed  ====================
M1002 gcode_claim_action : 2
M104 S0
M190 S65;set bed temp
M109 S140

G1 Z5 F3000
G29.2 S1
G1 X10 Y10 F20000

;===== bed leveling ==================================
;M1002 set_flag g29_before_print_flag=1
M1002 judge_flag g29_before_print_flag
M622 J1
    M1002 gcode_claim_action : 1
    G29 A1 X52.3399 Y59.2488 I76.2 J76.2
    M400
    M500 ; save cali data
M623
;===== bed leveling end ================================

;===== home after wipe mouth============================
M1002 judge_flag g29_before_print_flag
M622 J0

    M1002 gcode_claim_action : 13
    G28 T145

M623

;===== home after wipe mouth end =======================

M975 S1 ; turn on vibration supression
;===== nozzle load line ===============================
M975 S1
G90
M83
T1000

G1 X-13.5 Y0 Z10 F10000
G1 E1.2 F500
M400
M1002 set_filament_type:UNKNOWN
M109 S220
M400

M412 S1 ;    ===turn on  filament runout detection===
M400 P10

G392 S0 ;turn on clog detect

M620.3 W1; === turn on filament tangle detection===
M400 S2

M1002 set_filament_type:PLA
;M1002 set_flag extrude_cali_flag=1
M1002 judge_flag extrude_cali_flag
M622 J1
    M1002 gcode_claim_action : 8
    
    M400
    M900 K0.0 L1000.0 M1.0
    G90
    M83
    G0 X68 Y-4 F30000
    G0 Z0.3 F18000 ;Move to start position
    M400
    G0 X88 E10  F904.991
    G0 X93 E.3742  F1508.32
    G0 X98 E.3742  F6033.27
    G0 X103 E.3742  F1508.32
    G0 X108 E.3742  F6033.27
    G0 X113 E.3742  F1508.32
    G0 Y0 Z0 F20000
    M400
    
    G1 X-13.5 Y0 Z10 F10000
    M400
    
    G1 E10 F377.08
    M983 F6.28466 A0.3 H0.4; cali dynamic extrusion compensation
    M106 P1 S178
    M400 S7
    G1 X0 F18000
    G1 X-13.5 F3000
    G1 X0 F18000 ;wipe and shake
    G1 X-13.5 F3000
M73 P7 R64
    G1 X0 F12000 ;wipe and shake
    G1 X-13.5 F3000
    M400
    M106 P1 S0

    M1002 judge_last_extrude_cali_success
    M622 J0
        M983 F6.28466 A0.3 H0.4; cali dynamic extrusion compensation
        M106 P1 S178
        M400 S7
        G1 X0 F18000
        G1 X-13.5 F3000
        G1 X0 F18000 ;wipe and shake
        G1 X-13.5 F3000
        G1 X0 F12000 ;wipe and shake
        M400
        M106 P1 S0
    M623
    
    G1 X-13.5 F3000
    M400
    M984 A0.1 E1 S1 F6.28466
    M106 P1 S178
    M400 S7
    G1 X0 F18000
    G1 X-13.5 F3000
    G1 X0 F18000 ;wipe and shake
    G1 X-13.5 F3000
    G1 X0 F12000 ;wipe and shake
    G1 X-13.5 F3000
    M400
    M106 P1 S0

M623 ; end of "draw extrinsic para cali paint"

;===== extrude cali test ===============================
M104 S220
G90
M83
G0 X68 Y-2.5 F30000
G0 Z0.3 F18000 ;Move to start position
G0 X88 E10  F904.991
G0 X93 E.3742  F1508.32
G0 X98 E.3742  F6033.27
G0 X103 E.3742  F1508.32
G0 X108 E.3742  F6033.27
G0 X113 E.3742  F1508.32
G0 X115 Z0 F20000
G0 Z5
M400

;========turn off light and wait extrude temperature =============
M1002 gcode_claim_action : 0

M400 ; wait all motion done before implement the emprical L parameters

;===== for Textured PEI Plate , lower the nozzle as the nozzle was touching topmost of the texture when homing ==
;curr_bed_type=Textured PEI Plate

G29.1 Z-0.02 ; for Textured PEI Plate


M960 S1 P0 ; turn off laser
M960 S2 P0 ; turn off laser
M106 S0 ; turn off fan
M106 P2 S0 ; turn off big fan
M106 P3 S0 ; turn off chamber fan

M975 S1 ; turn on mech mode supression
G90
M83
T1000

M211 X0 Y0 Z0 ;turn off soft endstop
M1007 S1
G21 ; set units to millimeters
G90 ; use absolute coordinates
M82 ; use absolute distances for extrusion
G92 E0
; Filament gcode
M107
;LAYER_CHANGE
;Z:0.2
;HEIGHT:0.2
G1 E-2 F2400
G1 Z.2 F1800
G1 X74.042 Y59.906 F30000
G1 Z.2 F1800
G1 E.00001 F2400
;TYPE:Skirt/Brim
;WIDTH:0.5
G1 F6000
G1 X79.791 Y54.158 E.3028
G1 X81.618 Y52.891 E.38561
G1 X83.998 Y52.336 E.47663
G1 X88.547 Y52.193 E.64615
G1 X91.423 Y52.193 E.75327
G1 X96.001 Y52.336 E.92387
G1 X98.175 Y52.802 E1.00668
G1 X100.209 Y54.158 E1.09773
G1 X105.958 Y59.906 E1.40053
G1 X107.224 Y61.733 E1.48332
G1 X107.779 Y64.124 E1.57474
G1 X107.918 Y68.853 E1.75095
G1 X107.915 Y71.571 E1.85219
G1 X107.779 Y75.951 E2.01541
G1 X107.314 Y78.125 E2.09821
G1 X106.49 Y79.555 E2.15968
G1 X105.729 Y80.459 E2.20369
G1 X100.115 Y86.073 E2.4994
G1 X98.287 Y87.339 E2.58222
G1 X95.948 Y87.893 E2.67175
G1 X91.295 Y88.065 E2.84517
G1 X88.452 Y88.057 E2.95106
G1 X83.967 Y87.893 E3.11822
G1 X81.796 Y87.417 E3.201
G1 X79.791 Y86.073 E3.2909
G1 X74.042 Y80.325 E3.5937
G1 X72.776 Y78.497 E3.67652
G1 X72.222 Y76.151 E3.7663
G1 X72.05 Y71.388 E3.94382
G1 X72.052 Y68.606 E4.04744
G1 X72.223 Y64.075 E4.21632
G1 X72.701 Y61.904 E4.29912
G1 X74.009 Y59.956 E4.38651
G1 E2.38651 F2400
G92 E0
G1 X74.009 Y59.956 F30000
G1 X81.01 Y64.17
G1 E2 F2400
G1 F6000
G1 X81.04 Y64.119 E2.0022
G1 X81.694 Y63.244 E2.04289
G1 X82.418 Y62.454 E2.0828
G1 X83.184 Y61.767 E2.12112
G1 X84.031 Y61.143 E2.1603
G1 X84.955 Y60.594 E2.20033
G1 X87.096 Y59.706 E2.28666
G1 X87.961 Y59.59 E2.31917
G1 X88.796 Y59.661 E2.35038
G1 X89.958 Y60.101 E2.39666
G1 X90.941 Y59.716 E2.43598
G1 X91.844 Y59.593 E2.46992
G1 X92.652 Y59.661 E2.50012
G1 X93.755 Y60.026 E2.54339
G1 X94.87 Y60.52 E2.58881
G1 X95.923 Y61.133 E2.63419
G1 X96.779 Y61.761 E2.67373
G1 X97.56 Y62.463 E2.71284
G1 X98.268 Y63.236 E2.75188
G1 X98.903 Y64.082 E2.79128
G1 X99.52 Y65.113 E2.83603
G1 X99.947 Y66.028 E2.87364
G1 X100.442 Y67.422 E2.92874
G1 X100.512 Y68.226 E2.9588
G1 X100.413 Y69.053 E2.98982
G1 X99.977 Y70.126 E3.03296
G1 X100.175 Y70.457 E3.04733
G1 X100.405 Y71.149 E3.07449
G1 X100.504 Y72.32 E3.11826
G1 X100.357 Y73.13 E3.14892
G1 X99.49 Y75.173 E3.23158
G1 X98.936 Y76.1 E3.2718
G1 X98.289 Y76.969 E3.31215
G1 X97.545 Y77.782 E3.3532
G1 X96.739 Y78.501 E3.39343
G1 X95.865 Y79.135 E3.43365
G1 X94.937 Y79.677 E3.47368
G1 X94.011 Y80.102 E3.51163
G1 X92.625 Y80.581 E3.56625
G1 X91.793 Y80.639 E3.59731
G1 X90.922 Y80.512 E3.63009
G1 X89.981 Y80.116 E3.66812
G1 X88.938 Y80.538 E3.71003
G1 X88.15 Y80.64 E3.73962
G1 X87.349 Y80.583 E3.76953
G1 X85.939 Y80.094 E3.82512
G1 X84.922 Y79.619 E3.86693
G1 X83.995 Y79.064 E3.90717
G1 X83.129 Y78.419 E3.94739
G1 X82.333 Y77.691 E3.98757
G1 X81.613 Y76.887 E4.02777
G1 X80.977 Y76.016 E4.06794
G1 X80.434 Y75.088 E4.10799
G1 X80.009 Y74.169 E4.1457
G1 X79.497 Y72.662 E4.20498
G1 X79.461 Y71.907 E4.23313
G1 X79.556 Y71.182 E4.26036
G1 X79.818 Y70.411 E4.29069
G1 X79.999 Y70.111 E4.30374
G1 X79.801 Y69.783 E4.31801
G1 X79.55 Y69.019 E4.34796
G1 X79.459 Y68.277 E4.3758
G1 X79.497 Y67.565 E4.40236
G1 X80.058 Y65.942 E4.46632
G1 X80.5 Y65.017 E4.5045
G1 X80.979 Y64.222 E4.53907
G1 X80.979 Y64.222 F30000
G1 X81.384 Y64.439
G1 F6000
G1 X81.414 Y64.383 E4.54144
G1 X82.04 Y63.543 E4.58046
G1 X82.732 Y62.786 E4.61866
G1 X83.481 Y62.114 E4.65614
G1 X84.292 Y61.518 E4.69363
G1 X85.178 Y60.993 E4.73199
G1 X86.106 Y60.562 E4.7701
G1 X87.186 Y60.155 E4.81309
G1 X87.948 Y60.047 E4.84176
G1 X88.728 Y60.114 E4.87092
G1 X89.581 Y60.409 E4.90454
G1 X89.977 Y60.661 E4.92202
G1 X90.264 Y60.472 E4.93482
G1 X91.033 Y60.164 E4.96567
G1 X91.836 Y60.051 E4.99587
G1 X92.536 Y60.104 E5.02202
G1 X93.58 Y60.448 E5.06296
G1 X94.673 Y60.933 E5.1075
G1 X95.662 Y61.509 E5.15013
G1 X96.482 Y62.11 E5.188
G1 X97.231 Y62.78 E5.22543
G1 X97.91 Y63.52 E5.26284
G1 X98.53 Y64.346 E5.30131
G1 X99.121 Y65.336 E5.34425
G1 X99.529 Y66.212 E5.38024
G1 X99.99 Y67.494 E5.43098
G1 X100.055 Y68.196 E5.45724
G1 X99.962 Y68.972 E5.48635
G1 X99.694 Y69.711 E5.51563
G1 X99.429 Y70.121 E5.53381
G1 X99.751 Y70.631 E5.55627
G1 X99.963 Y71.268 E5.58128
G1 X100.049 Y72.27 E5.61874
G1 X99.922 Y72.988 E5.6459
G1 X99.092 Y74.949 E5.72521
G1 X98.562 Y75.837 E5.76373
G1 X97.944 Y76.669 E5.80233
G1 X97.232 Y77.449 E5.84167
G1 X96.461 Y78.138 E5.88018
G1 X95.624 Y78.747 E5.91873
G1 X94.735 Y79.266 E5.95707
G1 X93.848 Y79.675 E5.99345
G1 X92.562 Y80.127 E6.04422
G1 X91.787 Y80.181 E6.07316
G1 X91.017 Y80.065 E6.10216
G1 X90.36 Y79.809 E6.12842
G1 X89.984 Y79.563 E6.14516
G1 X89.579 Y79.824 E6.16311
G1 X88.854 Y80.088 E6.19185
G1 X88.115 Y80.183 E6.2196
G1 X87.415 Y80.13 E6.24575
G1 X86.122 Y79.676 E6.29679
G1 X85.127 Y79.21 E6.33771
G1 X84.241 Y78.678 E6.3762
G1 X83.412 Y78.059 E6.41474
G1 X82.65 Y77.362 E6.4532
G1 X81.961 Y76.591 E6.49171
G1 X81.354 Y75.756 E6.53016
G1 X80.834 Y74.868 E6.56849
G1 X80.429 Y73.988 E6.60457
G1 X79.952 Y72.604 E6.65909
G1 X79.917 Y71.945 E6.68367
G1 X80.006 Y71.265 E6.70921
G1 X80.24 Y70.59 E6.73582
G1 X80.546 Y70.11 E6.75702
G1 X80.224 Y69.608 E6.77923
G1 X80 Y68.938 E6.80554
G1 X79.916 Y68.281 E6.83021
G1 X79.952 Y67.623 E6.85475
G1 X80.476 Y66.128 E6.91375
G1 X81.355 Y64.492 E6.98292
G1 X81.355 Y64.492 F30000
G1 X81.755 Y64.707
G1 F6000
G1 X81.788 Y64.647 E6.98547
G1 X82.385 Y63.843 E7.02277
G1 X83.046 Y63.119 E7.05928
G1 X84.554 Y61.893 E7.13167
G1 X85.401 Y61.392 E7.16832
G1 X87.276 Y60.604 E7.24407
G1 X87.985 Y60.504 E7.27074
G1 X88.655 Y60.566 E7.2958
G1 X89.399 Y60.83 E7.3252
G1 X89.983 Y61.218 E7.35131
G1 X90.464 Y60.884 E7.37312
G1 X91.129 Y60.612 E7.39988
G1 X91.832 Y60.508 E7.42635
G1 X92.422 Y60.547 E7.44837
G1 X93.406 Y60.871 E7.48696
G1 X94.476 Y61.346 E7.53056
G1 X95.402 Y61.885 E7.57047
G1 X96.203 Y62.471 E7.60744
G1 X96.917 Y63.113 E7.6432
G1 X97.565 Y63.82 E7.67892
G1 X98.157 Y64.611 E7.71572
G1 X98.722 Y65.56 E7.75686
G1 X99.538 Y67.569 E7.83762
G1 X99.598 Y68.167 E7.86001
G1 X99.511 Y68.889 E7.8871
G1 X99.276 Y69.524 E7.91232
G1 X98.877 Y70.118 E7.93897
G1 X99.327 Y70.805 E7.96956
G1 X99.52 Y71.386 E7.99236
G1 X99.593 Y72.223 E8.02365
G1 X99.486 Y72.847 E8.04723
G1 X98.693 Y74.725 E8.12316
G1 X98.188 Y75.574 E8.15995
G1 X97.598 Y76.37 E8.19685
G1 X96.918 Y77.117 E8.23447
G1 X96.182 Y77.776 E8.27127
G1 X95.383 Y78.358 E8.30809
G1 X94.533 Y78.856 E8.34478
G1 X92.495 Y79.674 E8.42657
